packages/sources/icons/src/vitamix/instagram-line.svg

<svg width="16" height="16" viewBox="0 0 16 16" xmlns="http://www.w3.org/2000/svg"><path d="M8.00004 6.00001C7.46961 6.00001 6.9609 6.21072 6.58583 6.5858C6.21075 6.96087 6.00004 7.46958 6.00004 8.00001C6.00004 8.53044 6.21075 9.03915 6.58583 9.41422C6.9609 9.7893 7.46961 10 8.00004 10C8.53047 10 9.03918 9.7893 9.41425 9.41422C9.78933 9.03915 10 8.53044 10 8.00001C10 7.46958 9.78933 6.96087 9.41425 6.5858C9.03918 6.21072 8.53047 6.00001 8.00004 6.00001ZM8.00004 4.66668C8.8841 4.66668 9.73194 5.01787 10.3571 5.64299C10.9822 6.26811 11.3334 7.11595 11.3334 8.00001C11.3334 8.88406 10.9822 9.73191 10.3571 10.357C9.73194 10.9822 8.8841 11.3333 8.00004 11.3333C7.11599 11.3333 6.26814 10.9822 5.64302 10.357C5.0179 9.73191 4.66671 8.88406 4.66671 8.00001C4.66671 7.11595 5.0179 6.26811 5.64302 5.64299C6.26814 5.01787 7.11599 4.66668 8.00004 4.66668ZM12.3334 4.50001C12.3334 4.72102 12.2456 4.93299 12.0893 5.08927C11.933 5.24555 11.7211 5.33334 11.5 5.33334C11.279 5.33334 11.0671 5.24555 10.9108 5.08927C10.7545 4.93299 10.6667 4.72102 10.6667 4.50001C10.6667 4.279 10.7545 4.06703 10.9108 3.91075C11.0671 3.75447 11.279 3.66668 11.5 3.66668C11.7211 3.66668 11.933 3.75447 12.0893 3.91075C12.2456 4.06703 12.3334 4.279 12.3334 4.50001ZM8.00004 2.66668C6.35071 2.66668 6.08137 2.67134 5.31404 2.70534C4.79137 2.73001 4.44071 2.80001 4.11537 2.92668C3.82604 3.03868 3.61737 3.17268 3.39537 3.39534C3.18671 3.59694 3.02628 3.84307 2.92604 4.11534C2.79937 4.44201 2.72937 4.79201 2.70537 5.31401C2.67071 6.05001 2.66671 6.30734 2.66671 8.00001C2.66671 9.64934 2.67137 9.91868 2.70537 10.686C2.73004 11.208 2.80004 11.5593 2.92604 11.884C3.03937 12.174 3.17271 12.3827 3.39404 12.604C3.61871 12.828 3.82737 12.962 4.11404 13.0727C4.44337 13.2 4.79404 13.2707 5.31404 13.2947C6.05004 13.3293 6.30737 13.3333 8.00004 13.3333C9.64937 13.3333 9.91871 13.3287 10.686 13.2947C11.2074 13.27 11.5587 13.2 11.884 13.074C12.1727 12.9613 12.3827 12.8273 12.604 12.606C12.8287 12.3813 12.9627 12.1727 13.0734 11.886C13.2 11.5573 13.2707 11.206 13.2947 10.686C13.3294 9.95001 13.3334 9.69268 13.3334 8.00001C13.3334 6.35068 13.3287 6.08134 13.2947 5.31401C13.27 4.79268 13.2 4.44068 13.0734 4.11534C12.9729 3.84334 12.8128 3.59732 12.6047 3.39534C12.4032 3.18657 12.157 3.02612 11.8847 2.92601C11.558 2.79934 11.2074 2.72934 10.686 2.70534C9.95004 2.67068 9.69271 2.66668 8.00004 2.66668ZM8.00004 1.33334C9.81137 1.33334 10.0374 1.34001 10.748 1.37334C11.458 1.40668 11.9414 1.51801 12.3667 1.68334C12.8067 1.85268 13.1774 2.08201 13.548 2.45201C13.887 2.78527 14.1493 3.1884 14.3167 3.63334C14.4814 4.05801 14.5934 4.54201 14.6267 5.25201C14.658 5.96268 14.6667 6.18868 14.6667 8.00001C14.6667 9.81134 14.66 10.0373 14.6267 10.748C14.5934 11.458 14.4814 11.9413 14.3167 12.3667C14.1498 12.8119 13.8875 13.2151 13.548 13.548C13.2147 13.8869 12.8116 14.1492 12.3667 14.3167C11.942 14.4813 11.458 14.5933 10.748 14.6267C10.0374 14.658 9.81137 14.6667 8.00004 14.6667C6.18871 14.6667 5.96271 14.66 5.25204 14.6267C4.54204 14.5933 4.05871 14.4813 3.63337 14.3167C3.18826 14.1497 2.78506 13.8873 2.45204 13.548C2.11298 13.2148 1.85066 12.8117 1.68337 12.3667C1.51804 11.942 1.40671 11.458 1.37337 10.748C1.34204 10.0373 1.33337 9.81134 1.33337 8.00001C1.33337 6.18868 1.34004 5.96268 1.37337 5.25201C1.40671 4.54134 1.51804 4.05868 1.68337 3.63334C1.8502 3.18813 2.11258 2.78489 2.45204 2.45201C2.78515 2.11283 3.18833 1.8505 3.63337 1.68334C4.05871 1.51801 4.54137 1.40668 5.25204 1.37334C5.96271 1.34201 6.18871 1.33334 8.00004 1.33334Z"/></svg>

<svg width="16" height="16" xmlns="http://www.w3.org/2000/svg"><path d="M8 6a2 2 0 1 0 0 4 2 2 0 0 0 0-4Zm0-1.333a3.333 3.333 0 1 1 0 6.667 3.333 3.333 0 0 1 0-6.667Zm4.333-.167a.833.833 0 1 1-1.666 0 .833.833 0 0 1 1.666 0ZM8 2.667c-1.65 0-1.919.004-2.686.038-.523.025-.873.095-1.199.222a1.933 1.933 0 0 0-.72.468 1.936 1.936 0 0 0-.469.72c-.127.327-.197.677-.22 1.199-.035.736-.04.993-.04 2.686 0 1.65.005 1.919.04 2.686.024.522.094.873.22 1.198.113.29.247.499.468.72.225.224.433.358.72.469.33.127.68.198 1.2.222.736.034.993.038 2.686.038 1.65 0 1.919-.004 2.686-.038.521-.025.873-.095 1.198-.221a1.95 1.95 0 0 0 .72-.468 1.93 1.93 0 0 0 .47-.72c.126-.329.197-.68.22-1.2.035-.736.04-.993.04-2.686 0-1.65-.005-1.919-.04-2.686-.024-.521-.094-.873-.22-1.199a1.94 1.94 0 0 0-.47-.72 1.923 1.923 0 0 0-.72-.469c-.326-.127-.677-.197-1.198-.22-.736-.035-.993-.04-2.686-.04Zm0-1.334c1.811 0 2.037.007 2.748.04.71.034 1.193.145 1.619.31.44.17.81.399 1.181.769.339.333.601.736.769 1.181.164.425.276.909.31 1.619.031.71.04.937.04 2.748 0 1.811-.007 2.037-.04 2.748-.034.71-.146 1.193-.31 1.619-.167.445-.43.848-.769 1.181a3.276 3.276 0 0 1-1.181.769c-.425.164-.909.276-1.619.31-.71.031-.937.04-2.748.04-1.811 0-2.037-.007-2.748-.04-.71-.034-1.193-.146-1.619-.31a3.26 3.26 0 0 1-1.181-.769 3.269 3.269 0 0 1-.769-1.181c-.165-.425-.276-.909-.31-1.619-.031-.71-.04-.937-.04-2.748 0-1.811.007-2.037.04-2.748.034-.71.145-1.193.31-1.619.167-.445.43-.848.769-1.181.333-.34.736-.601 1.181-.769.426-.165.908-.276 1.619-.31.71-.031.937-.04 2.748-.04Z"/></svg>
